X: 19
T: Queen Pulkawalkas Waltz
%R: waltz
B: "Twenty Four Country Dances with Figures for the Year 1809", Button & Whitaker, p.10 #1
F: http://www.vwml.org/browse/browse-collections-dance-tune-books/browse-button1809
Z: 2014 John Chambers <jc:trillian.mit.edu>
M: 3/8
L: 1/16
K: D
% - - - - - - - - - - - - - - - - - - - - - - - - - - - - -
(de) |\
f2{^g}a2{g}a2 | (g2e2).e2 | (fgfdcd) | e2A2 (de) |\
f2{^g}a2{g}a2 | (g2e2).e2 | (fgfdec) | d4 :|
|: (ec) |\
A2A2(ag) | (g2f2)(ga) | (bagfed) | (cABcde) |\
f2d2(ba) | (^gefg)a2 | {e}d2c2B2 | A4 :|
|: (ef) |\
(g2e2)(ag) | (fd)(cd)(cd) | B2(efge) | (dcBABc) |\
(defgaf) | (efgabg) | (fafdec) | d4 :|
% - - - - - - - - - - Dance description - - - - - - - - - -
%%begintext align
%% The 1st & 2d Cu: set & change sides, back again,
%% down the mid: up again, All.e & Swing corners.
%%endtext

%%sep 1 1 500
%%sep 1 1 500
